/* XPM */
static char *hide_pressed[] = {
/* columns rows colors chars-per-pixel */
"20 23 5 1 ",
"  c None",
". c black",
"x c #000000 s active_border_color",
"X c #868A8E s active_shadow_2",
"o c #C3C3C3 s active_color_2",
/* pixels */
"                    ",
"                    ",
"                    ",
"....................",
".XXXXXXXXXXXXXXXXXX.",
".Xooooooooooooooooo.",
".Xooooooooooooooooo.",
".Xooooooooooooooooo.",
".Xooooooooooooooooo.",
".Xooooooooooooooooo.",
".Xooooooooooooooooo.",
".Xooooooooooooooooo.",
".Xooooooooooooooooo.",
".Xoooooxxxxxxxooooo.",
".Xooooooxxxxxoooooo.",
".Xoooooooxxxooooooo.",
".Xooooooooxoooooooo.",
".Xooooooooooooooooo.",
".Xooooooooooooooooo.",
".Xooooooooooooooooo.",
".Xooooooooooooooooo.",
".Xooooooooooooooooo.",
"...................."
};
