/* XPM */
static char *maximize_toggled_active[] = {
/* columns rows colors chars-per-pixel */
"20 23 6 1 ",
"  c None",
". c black",
"x c #000000 s active_border_color",
"X c #868A8E s active_shadow_2",
"o c #C3C3C3 s active_color_2",
"O c white s active_hilight_2",
/* pixels */
"                    ",
"                    ",
"                    ",
"....................",
".OOOOOOOOOOOOOOOOOX.",
".OoooooooooooooooXX.",
".OoooooooooooooooXX.",
".OoooooooooooooooXX.",
".OoooooooxoooooooXX.",
".OooooooxxxooooooXX.",
".OoooooxxxxxoooooXX.",
".OooooxxxxxxxooooXX.",
".OoooooooooooooooXX.",
".OoooooooooooooooXX.",
".OooooxxxxxxxooooXX.",
".OoooooxxxxxoooooXX.",
".OooooooxxxooooooXX.",
".OoooooooxoooooooXX.",
".OoooooooooooooooXX.",
".OoooooooooooooooXX.",
".OXXXXXXXXXXXXXXXXX.",
".XXXXXXXXXXXXXXXXXX.",
"...................."
};
